drivers/binary_sensor/assets/icons/alarm_contact.svg

<svg viewBox="0 0 48 48" xmlns="http://www.w3.org/2000/svg"><path d="m11.247 0 8.542.058a5.956 5.956 0 0 1 5.917 5.993l-.252 36.038A5.95 5.95 0 0 1 19.46 48l-8.547-.057A5.95 5.95 0 0 1 5 41.949l.252-36.038A5.95 5.95 0 0 1 11.247 0Zm23.397 10.574 3.585.025a4.34 4.34 0 0 1 4.307 4.37l-.14 19.975a4.34 4.34 0 0 1-4.369 4.308l-3.585-.024a4.34 4.34 0 0 1-4.307-4.37l.14-19.975a4.34 4.34 0 0 1 4.369-4.309Z" fill="#313132" fill-rule="evenodd"/></svg>

<?xml version="1.0" encoding="UTF-8" standalone="no"?>
<!DOCTYPE svg PUBLIC "-//W3C//DTD SVG 1.1//EN" "http://www.w3.org/Graphics/SVG/1.1/DTD/svg11.dtd">
<svg width="100%" height="100%" viewBox="0 0 300 300" version="1.1" xmlns="http://www.w3.org/2000/svg" xmlns:xlink="http://www.w3.org/1999/xlink" xml:space="preserve" xmlns:serif="http://www.serif.com/" style="fill-rule:evenodd;clip-rule:evenodd;stroke-linejoin:round;stroke-miterlimit:2;">
    <g id="homey_warning.svg" transform="matrix(2.08333,0,0,2.08333,240,240)">
        <g transform="matrix(1,0,0,1,-24,-24)">
            <clipPath id="_clip1">
                <rect x="0" y="0" width="48" height="48"/>
            </clipPath>
            <g clip-path="url(#_clip1)">
                <path d="M47.498,41.406L27.831,2.41C27.123,0.94 25.629,0.001 23.998,0.001C22.366,0.001 20.872,0.94 20.164,2.41L0.5,41.406C-1.01,44.403 1.08,48 4.334,48L43.668,48C46.918,47.996 49.012,44.403 47.498,41.406ZM21.871,16.106C21.871,14.841 22.856,13.816 24.072,13.816C25.288,13.816 26.273,14.841 26.273,16.106L26.273,29.249C26.273,30.513 25.288,31.539 24.073,31.539C22.856,31.539 21.871,30.513 21.871,29.249L21.871,16.106ZM24,41.328C22.246,41.328 20.823,39.848 20.823,38.024C20.823,36.199 22.246,34.72 24,34.72C25.754,34.72 27.177,36.199 27.177,38.024C27.177,39.849 25.754,41.328 24,41.328Z" style="fill:rgb(49,49,50);"/>
            </g>
        </g>
    </g>
    <g id="contact_off.svg" transform="matrix(4.16667,0,0,4.16667,110,110)">
        <g transform="matrix(1,0,0,1,-24,-24)">
            <clipPath id="_clip2">
                <rect x="0" y="0" width="48" height="48"/>
            </clipPath>
            <g clip-path="url(#_clip2)">
                <path d="M11.247,0L19.789,0.058C23.056,0.079 25.726,2.784 25.706,6.051L25.454,42.089C25.433,45.338 22.754,48 19.504,48C19.489,48 19.475,48 19.46,48L10.913,47.943C7.663,47.923 5,45.243 5,41.993C5,41.978 5,41.964 5,41.949L5.252,5.911C5.273,2.662 7.952,-0 11.202,-0C11.217,-0 11.232,-0 11.247,0ZM34.644,10.574L38.229,10.599C40.609,10.617 42.553,12.589 42.536,14.969L42.396,34.944C42.379,37.324 40.407,39.268 38.027,39.252L34.442,39.228C32.062,39.21 30.118,37.238 30.135,34.858L30.275,14.883C30.292,12.503 32.264,10.558 34.644,10.574Z" style="fill:rgb(49,49,50);"/>
            </g>
        </g>
    </g>
</svg>
